svg/business/currency_rubel_fill.svg

<?xml version="1.0" encoding="UTF-8"?>
<svg width="24px" height="24px" viewBox="0 0 24 24" version="1.1" xmlns="http://www.w3.org/2000/svg" xmlns:xlink="http://www.w3.org/1999/xlink">
    <title>currency_rubel_fill</title>
    <g id="页面-1" stroke="none" stroke-width="1" fill="none" fill-rule="evenodd">
        <g id="Business" transform="translate(-432.000000, -336.000000)" fill-rule="nonzero">
            <g id="currency_rubel_fill" transform="translate(432.000000, 336.000000)">
                <path d="M24,0 L24,24 L0,24 L0,0 L24,0 Z M12.5934901,23.257841 L12.5819402,23.2595131 L12.5108777,23.2950439 L12.4918791,23.2987469 L12.4918791,23.2987469 L12.4767152,23.2950439 L12.4056548,23.2595131 C12.3958229,23.2563662 12.3870493,23.2590235 12.3821421,23.2649074 L12.3780323,23.275831 L12.360941,23.7031097 L12.3658947,23.7234994 L12.3769048,23.7357139 L12.4804777,23.8096931 L12.4953491,23.8136134 L12.4953491,23.8136134 L12.5071152,23.8096931 L12.6106902,23.7357139 L12.6232938,23.7196733 L12.6232938,23.7196733 L12.6266527,23.7031097 L12.609561,23.275831 C12.6075724,23.2657013 12.6010112,23.2592993 12.5934901,23.257841 L12.5934901,23.257841 Z M12.8583906,23.1452862 L12.8445485,23.1473072 L12.6598443,23.2396597 L12.6498822,23.2499052 L12.6498822,23.2499052 L12.6471943,23.2611114 L12.6650943,23.6906389 L12.6699349,23.7034178 L12.6699349,23.7034178 L12.678386,23.7104931 L12.8793402,23.8032389 C12.8914285,23.8068999 12.9022333,23.8029875 12.9078286,23.7952264 L12.9118235,23.7811639 L12.8776777,23.1665331 C12.8752882,23.1545897 12.8674102,23.1470016 12.8583906,23.1452862 L12.8583906,23.1452862 Z M12.1430473,23.1473072 C12.1332178,23.1423925 12.1221763,23.1452606 12.1156365,23.1525954 L12.1099173,23.1665331 L12.0757714,23.7811639 C12.0751323,23.7926639 12.0828099,23.8018602 12.0926481,23.8045676 L12.108256,23.8032389 L12.3092106,23.7104931 L12.3186497,23.7024347 L12.3186497,23.7024347 L12.3225043,23.6906389 L12.340401,23.2611114 L12.337245,23.2485176 L12.337245,23.2485176 L12.3277531,23.2396597 L12.1430473,23.1473072 Z" id="MingCute" fill-rule="nonzero"></path>
                <path d="M12,2 C17.5228,2 22,6.47715 22,12 C22,17.5228 17.5228,22 12,22 C6.47715,22 2,17.5228 2,12 C2,6.47715 6.47715,2 12,2 Z M13.5,6 L10,6 C9.48716857,6 9.06449347,6.38604429 9.0067278,6.88337975 L9,7 L9,11 L8.5,11 C7.94772,11 7.5,11.4477 7.5,12 C7.5,12.51285 7.88604429,12.9355092 8.38337975,12.9932725 L8.5,13 L9,13 L9,14 L8.5,14 C7.94772,14 7.5,14.4477 7.5,15 C7.5,15.51285 7.88604429,15.9355092 8.38337975,15.9932725 L8.5,16 L9,16 L9,17 C9,17.5523 9.44772,18 10,18 C10.51285,18 10.9355092,17.613973 10.9932725,17.1166239 L11,17 L11,16 L13,16 C13.5523,16 14,15.5523 14,15 C14,14.48715 13.613973,14.0644908 13.1166239,14.0067275 L13,14 L11,14 L11,13 L13.5,13 C15.433,13 17,11.433 17,9.5 C17,7.63143333 15.5357256,6.10487333 13.6920355,6.00517885 L13.5,6 Z M13.5,8 C14.3284,8 15,8.67157 15,9.5 C15,10.2796706 14.4050879,10.9204457 13.6444558,10.9931332 L13.5,11 L11,11 L11,8 L13.5,8 Z" id="形状" fill="#09244B"></path>
            </g>
        </g>
    </g>
</svg>

<svg xmlns="http://www.w3.org/2000/svg" width="24" height="24"><g fill="none" fill-rule="nonzero"><path d="M24 0v24H0V0zM12.593 23.258l-.011.002-.071.035-.02.004-.014-.004-.071-.035c-.01-.004-.019-.001-.024.005l-.004.01-.017.428.005.02.01.013.104.074.015.004.012-.004.104-.074.012-.016.004-.017-.017-.427c-.002-.01-.009-.017-.017-.018m.265-.113-.013.002-.185.093-.01.01-.003.011.018.43.005.012.008.007.201.093c.012.004.023 0 .029-.008l.004-.014-.034-.614c-.003-.012-.01-.02-.02-.022m-.715.002a.023.023 0 0 0-.027.006l-.006.014-.034.614c0 .012.007.02.017.024l.015-.002.201-.093.01-.008.004-.011.017-.43-.003-.012-.01-.01z"/><path fill="#09244B" d="M12 2c5.523 0 10 4.477 10 10s-4.477 10-10 10S2 17.523 2 12 6.477 2 12 2m1.5 4H10a1 1 0 0 0-.993.883L9 7v4h-.5a1 1 0 0 0-.117 1.993L8.5 13H9v1h-.5a1 1 0 0 0-.117 1.993L8.5 16H9v1a1 1 0 0 0 1.993.117L11 17v-1h2a1 1 0 0 0 .117-1.993L13 14h-2v-1h2.5a3.5 3.5 0 0 0 .192-6.995zm0 2a1.5 1.5 0 0 1 .144 2.993L13.5 11H11V8z"/></g></svg>
